X:1
T:Title
%%score ( 1 2 ) 3
L:1/8
M:4/4
K:D
V:1 treble nm="Grand Piano, Soprano"
V:2 treble 
V:3 bass nm="Choir Pad, Golden Grove, 10.10.10.10"
V:1
 D4 [DE]2 [DF]2 | [DA]4 [DG]4 | [DG]3 E [DF]2 [DG]2 | [DF]8 | [CF]4 [F^G]2 [FA]2 | [FB]6 [FA]2 | %6
w: By~Ernest~Littlewood,~before~1924 * *||||||
 [E^G]2 [Fd]2 [Gc]2 [GB]2 | A8 | A4 [AB]2 [Ac]2 | [Ae]4 [Ad]4 | [Fd]3 [DF] [DG]2 [DA]2 | [DB]8 | %12
w: ||||||
 [DE]4 [CF]2 [CE]2 | [DA]2 [CF]2 D2 [DE]2 | F6 z2 | D8 |] %16
w: ||||
V:2
 x8 | x8 | x8 | x8 | x8 | x8 | x8 | x8 | x8 | x8 | x8 | x8 | x8 | x8 | D2 B,2 C2 [CE]2 | x8 |] %16
V:3
 [D,F,]4 [D,G,]2 [E,A,]2 | [D,C]4 [D,B,]4 | [E,^A,]3 [E,A,] =A,2 [A,,A,]2 | [D,A,]8 | %4
 [F,A,]4 [F,B,]2 [F,C]2 | [D,B,]6 [^D,B,]2 | [E,B,]2 [E,B,]2 [E,E]2 [E,D]2 | [A,C]8 | %8
 [A,C]4 [A,D]2 [A,E]2 | [G,C]4 [F,D]4 | [D,=C]3 [D,C] [E,C]2 [F,C]2 | [G,B,]8 | %12
 [G,^A,]4 [G,=A,]2 [G,A,]2 | [F,A,]2 [A,,A,]2 [B,,F,]2 [B,,^G,]2 | [A,,A,]6 [A,,G,]2 | [D,F,]8 |] %16

